!!!COM: Bach, Johann Sebastian
!!!OPR: Joh. Seb. Bachs vierstimmige Choralges‰nge
!!!XEN: Four-part Chorales
!!!OTL: 53. Erstanden ist der heil'ge Christ
!!!SCT: BWV 306
!!!SCA: Thematisch-systematisches Verzeichnis der musikalischen Werke Johann Sebastian Bach: Bach-Werke-Verzeichnis (Schmieder)
!!!YOR: Bach Gesellschaft Edition xxxix
!!!ENC: Steven Rasmussen
!!!CDT: 1685/3//-1750/7/28/
!!!OCY: Deutschland
!!!YEC: Copyright (c) 1994, 2000 Center for Computer Assisted Research in the Humanities
!!!YEM: Rights to all derivative editions reserved
!!!YEN: United States of America
**kern	**silbe	**kern	**silbe	**kern	**silbe	**kern	**silbe
*I:[SOPRANO]	*I:[SOPRANO]	*I:[ALTO]	*I:[ALTO]	*I:[TENORE]	*I:[TENORE]	*I:[BASSO]	*I:[BASSO]
*clefG2	*	*clefG2	*	*clefGv2	*	*clefF4	*
*k[b-]	*	*k[b-]	*	*k[b-]	*	*k[b-]	*
*F:	*	*F:	*	*F:	*	*F:	*
*M3/4	*	*M3/4	*	*M3/4	*	*M3/4	*
4f	Er-	4c	Er-	4A	Er-	4FF	.
=1	=1	=1	=1	=1	=1	=1	=1
4.f	-stan-	4c	-stan-	8AL	-stan-	4.F	.
.	.	.	.	8B-	.	.	.
.	.	8dL	-den	8A	.	.	.
8gL	-den	8eJ	.	8GJ	.	(8E	.
8a	.	[4f	ist	4F	-den	4D)	.
8b-J	.	.	.	.	.	.	.
=2	=2	=2	=2	=2	=2	=2	=2
2cc	ist	4f]	.	2G	ist	4.C	.
.	.	8eL	der	.	.	.	.
.	.	8fJ	.	.	.	8DL	.
4g	der	[4g	heil'-	4c	der	8E	.
.	.	.	.	.	.	8CJ	.
=3	=3	=3	=3	=3	=3	=3	=3
2a	heil'-	8gL]	.	2c	heil'-	4.F	.
.	.	8eJ	.	.	.	.	.
.	.	2f	-ge	.	.	.	.
.	.	.	.	.	.	(8E	.
4bn	-ge	.	.	4d	-ge	4D)	.
=4	=4	=4	=4	=4	=4	=4	=4
2cc;	Christ,	(4f	.	2G;	.	2C;	.
.	.	4e;)	.	.	.	.	.
4b-	al-	4g	.	4c	.	4E	.
=5	=5	=5	=5	=5	=5	=5	=5
4.a	-le-	4g	.	8cL	.	4.F	.
.	.	.	.	8AJ	.	.	.
.	.	2f	.	2d	.	.	.
8gL	-lu-	.	.	.	.	(8E	.
8a	.	.	.	.	.	4D)	.
8b-J	.	.	.	.	.	.	.
=6	=6	=6	=6	=6	=6	=6	=6
2cc	-ja,	8gL	.	8cL	.	4.E	.
.	.	8f	.	8dJ	.	.	.
.	.	8gJ	.	4e	.	.	.
.	.	4a	al-	.	.	(8F#	.
4b-	al-	.	.	4d	al-	4G)	.
.	.	[8g	.	.	.	.	.
=7	=7	=7	=7	=7	=7	=7	=7
2a	-le-	8gL]	.	4d	-le-	4.D	.
.	.	16fL	.	.	.	.	.
.	.	16eJJ	.	.	.	.	.
.	.	4.f	-le-	4A	-lu-	.	.
.	.	.	.	.	.	(8C	.
4g	-lu-	.	.	4D	.	4BB-)	.
.	.	16eLL	-lu-	.	.	.	.
.	.	16dJJ	.	.	.	.	.
=8	=8	=8	=8	=8	=8	=8	=8
2a;	-ja!	2c#;	-ja!	2E;	-ja!	2AA;	.
4a	Der	4d	Der	4F	Der	4D	.
=9	=9	=9	=9	=9	=9	=9	=9
2cc	al-	4.e	al-	4A	al-	8AL	.
.	.	.	.	.	.	8AAJ	.
.	.	.	.	2c	-ler	8AL	.
.	.	8f	-ler	.	.	8G	.
4b-	-ler	[4g	Welt	.	.	8F	.
.	.	.	.	.	.	8EJ	.
=10	=10	=10	=10	=10	=10	=10	=10
2a	Welt	4g]	.	8cL	Welt	8FL	Welt
.	.	.	.	8A	.	8FFJ	.
.	.	4f	ein	8d	.	8FL	ein
.	.	.	.	8cJ	.	8E	.
4g	ein	[4e	Tr√∂-	4B-	ein	8D	.
.	.	.	.	.	.	8C#J	.
=11	=11	=11	=11	=11	=11	=11	=11
2f	Tr√∂-	(4e]	.	8AL	Tr√∂-	(4D	Tr√∂-
.	.	.	.	8F	.	.	.
.	.	4d)	.	8B-	.	4BB-)	.
.	.	.	.	8AJ	.	.	.
4e	-ster	8cL	-ster	4G	-ster	4C	-ster
.	.	8B-J	.	.	.	.	.
=12	=12	=12	=12	=12	=12	=12	=12
2f;	ist,	2A;	.	2F;	.	2D;	.
4f	al-	4d	.	4A	.	8DL	.
.	.	.	.	.	.	8CJ	.
=13	=13	=13	=13	=13	=13	=13	=13
8gL	-le-	4d	.	(4G	.	4.BB-	.
8f	.	.	.	.	.	.	.
8g	.	8eL	.	4c)	.	.	.
8aJ	.	8fJ	.	.	.	(8AA	.
4b-	-lu-	8dL	.	4B-	.	4GG)	.
.	.	8eJ	.	.	.	.	.
=14	=14	=14	=14	=14	=14	=14	=14
2a	-ja,	2f	.	8AL	.	8FFL	.
.	.	.	.	8B-J	.	8GG	.
.	.	.	.	4c	.	8AA	.
.	.	.	.	.	.	8BB-J	.
4g	al-	[4e	al-	8cL	al-	4C	.
.	.	.	.	8B-J	.	.	.
=15	=15	=15	=15	=15	=15	=15	=15
2f	-le-	4e]	.	4A	-le-	8DL	.
.	.	.	.	.	.	8CJ	.
.	.	4d	-le-	8B-L	.	4BB-	.
.	.	.	.	8AJ	.	.	.
4e	-lu-	4c	-lu-	8GL	-lu-	4C	.
.	.	.	.	8B-J	.	.	.
=16	=16	=16	=16	=16	=16	=16	=16
2.f;/xx	-ja!	2.c;/xx	-ja!	2.A;/xx	-ja!	2.FF;/xx	.
==|!	==|!	==|!	==|!	==|!	==|!	==|!	==|!
*-	*-	*-	*-	*-	*-	*-	*-
!!!RWG: Key is interpreted using the Humdrum key tool.
!!!END: 1994/05/25
!!!EMD: Converted from MuseData to Humdrum Dec 19, 2000, by Andreas Kornstaedt using muse2kern.
!!!EED: Craig Stuart Sapp
!!!EEV: 2024/03/31
!!!ONB: Some non-unicode characters
